icons/white/easy_jet.svg

<?xml version="1.0" encoding="UTF-8"?><svg id="a" xmlns="http://www.w3.org/2000/svg" viewBox="0 0 48 48"><defs><style>.b{fill:none;stroke:#fff;stroke-linecap:round;stroke-linejoin:round;}</style></defs><path class="b" d="M31.5227,19.2487v5.3286c0,.981-.7935,1.7762-1.7724,1.7762h0c-.9789,0-1.7724-.7952-1.7724-1.7762v-.5898"/><path class="b" d="M26.3543,24.5773v2.3979c0,.981-.7952,1.7762-1.7762,1.7762h0c-.4905,0-.9345-.1988-1.2559-.5202"/><path class="b" d="M26.3543,21.6465v2.9307c0,.981-.7952,1.7762-1.7762,1.7762h0c-.981,0-1.7762-.7952-1.7762-1.7762v-2.9307"/><path class="b" d="M18.1471,25.9564c.3243.2723.6745.3971,1.4608.3971h.3985c.6485,0,1.1742-.5268,1.1742-1.1767h0c0-.6499-.5257-1.1767-1.1742-1.1767h-.797c-.6485,0-1.1742-.5268-1.1742-1.1767h0c0-.6499.5257-1.1767,1.1742-1.1767h.3985c.7863,0,1.1365.1248,1.4608.3971"/><path class="b" d="M11.3195,25.4571c-.3059.5355-.8825.8963-1.5433.8963h0c-.981,0-1.7762-.7952-1.7762-1.7762v-1.1545c0-.981.7952-1.7762,1.7762-1.7762h0c.981,0,1.7762.7952,1.7762,1.7762v.5773s-3.5524,0-3.5524,0"/><path class="b" d="M36.4935,25.4571c-.3059.5355-.8825.8963-1.5433.8963h0c-.981,0-1.7762-.7952-1.7762-1.7762v-1.1545c0-.981.7952-1.7762,1.7762-1.7762h0c.981,0,1.7762.7952,1.7762,1.7762v.5773s-3.5524,0-3.5524,0"/><path class="b" d="M38.8455,20.1812v5.2842c0,.4905.3976.8881.8881.8881h.2664"/><line class="b" x1="37.913" y1="21.6465" x2="39.778" y2="21.6465"/><path class="b" d="M16.5403,24.5773c0,.981-.7952,1.7762-1.7762,1.7762h0c-.981,0-1.7762-.7952-1.7762-1.7762v-1.1545c0-.981.7952-1.7762,1.7762-1.7762h0c.981,0,1.7762.7952,1.7762,1.7762"/><line class="b" x1="16.5403" y1="26.3535" x2="16.5403" y2="21.6465"/><rect class="b" x="5.5" y="5.5" width="37" height="37" rx="4" ry="4"/></svg>

<svg xmlns="http://www.w3.org/2000/svg" viewBox="0 0 48 48"><defs><style>.a{fill:none;stroke:#fff;stroke-linecap:round;stroke-linejoin:round;}</style></defs><path class="a" d="M31.5227,19.2487v5.3286A1.7744,1.7744,0,0,1,29.75,26.3535h0a1.7743,1.7743,0,0,1-1.7724-1.7762v-.59"/><path class="a" d="M26.3543,24.5773v2.3978a1.7762,1.7762,0,0,1-1.7762,1.7762h0a1.77,1.77,0,0,1-1.2559-.52"/><path class="a" d="M26.3543,21.6465v2.9308a1.7762,1.7762,0,0,1-1.7762,1.7762h0a1.7763,1.7763,0,0,1-1.7762-1.7762V21.6465"/><path class="a" d="M18.1471,25.9564a1.9983,1.9983,0,0,0,1.4609.3971h.3985a1.1756,1.1756,0,0,0,1.1742-1.1768h0A1.1755,1.1755,0,0,0,20.0065,24H19.21a1.1754,1.1754,0,0,1-1.1742-1.1767h0A1.1755,1.1755,0,0,1,19.21,21.6465h.3985a1.9975,1.9975,0,0,1,1.4608.3972"/><path class="a" d="M11.32,25.4571a1.7754,1.7754,0,0,1-1.5433.8964h0A1.7762,1.7762,0,0,1,8,24.5773V23.4227a1.7762,1.7762,0,0,1,1.7762-1.7762h0a1.7762,1.7762,0,0,1,1.7762,1.7762V24H8"/><path class="a" d="M36.4935,25.4571a1.7755,1.7755,0,0,1-1.5433.8964h0a1.7762,1.7762,0,0,1-1.7762-1.7762V23.4227A1.7762,1.7762,0,0,1,34.95,21.6465h0a1.7762,1.7762,0,0,1,1.7762,1.7762V24H33.174"/><path class="a" d="M38.8455,20.1812v5.2842a.8881.8881,0,0,0,.8881.8881H40"/><line class="a" x1="37.913" y1="21.6465" x2="39.778" y2="21.6465"/><path class="a" d="M16.54,24.5773a1.7762,1.7762,0,0,1-1.7762,1.7762h0a1.7763,1.7763,0,0,1-1.7762-1.7762V23.4227a1.7763,1.7763,0,0,1,1.7762-1.7762h0A1.7762,1.7762,0,0,1,16.54,23.4227"/><line class="a" x1="16.5403" y1="26.3535" x2="16.5403" y2="21.6465"/><rect class="a" x="5.5" y="5.5" width="37" height="37" rx="2"/></svg>
